icons/twitch-fill.svg

<svg width="24" height="24" fill="none" xmlns="http://www.w3.org/2000/svg"><g clip-path="url(#a)"><path d="M21 3v11.74l-4.696 4.695h-3.913l-2.437 2.348H6.913v-2.348H3V6.13L4.227 3H21Zm-1.565 1.565H6.13v11.74h3.13v2.347l2.349-2.348h4.695l3.13-3.13V4.565h.001Zm-3.13 3.13v4.696h-1.566V7.696h1.565l.001-.001Zm-3.914 0v4.696h-1.565V7.696h1.565v-.001Z" /></g><defs><clipPath id="a"><path fill="#fff" d="M0 0h24v24H0z"/></clipPath></defs></svg>

<svg xmlns="http://www.w3.org/2000/svg" width="24" height="24" fill="none"><g clip-path="url(#a)"><g><path fill="#121212" d="M21 3V14.74L16.304 19.435H12.391L9.954 21.783H6.913V19.435H3V6.13L4.227 3H21ZM19.435 4.565H6.13V16.305H9.26V18.652L11.609 16.304H16.304L19.434 13.174V4.565H19.435ZM16.305 7.695V12.391H14.739V7.696H16.304L16.305 7.695ZM12.391 7.695V12.391H10.826V7.696H12.391V7.695Z"/></g></g><defs><clipPath id="a"><rect width="24" height="24" fill="white"/></clipPath></defs></svg>
